X:3
T:Silly Witches 
R:Jig
C:W Duncan
M:6/8
L:1/8
Q:"112 bpm"
K:D
[| {g}A{d}A{e}A {g}Ace | {g}fec {g}ecB | {g}A{d}A{e}A {g}Ace | {g}fec {g}efa | 
A{d}A{e}A {g}Ace | {g}fec {g}ecB | {g}fec {g}ecB | {g}A{d}A{e}A {GAG}A2 e |
{g}A{d}A{e}A {g}Ace | {g}fec {g}ecB | {g}A{d}A{e}A {g}Ace | {g}fec {g}efa | 
A{d}A{e}A {g}Ace | {g}fec {g}ecB | {g}fec {g}ecB | {g}A{d}A{e}A {GAG}A2 e |
{ag}a2 e {g}fec | {g}A{d}A{e}A {g}Ace | {ag}a2 e {g}fec | {g}B{d}B{e}B {g}Bce |
{ag}a2 e {g}fec | {g}A{d}A{e}A {g}Ace | {g}fec {g}ecB | {g}A{d}A{e}A {GAG}A2 e |
{ag}a2 e {g}fec | {g}A{d}A{e}A {g}Ace | {ag}a2 e {g}fec | {g}B{d}B{e}B {g}Bce |
{ag}a2 e {g}fec | {g}A{d}A{e}A {g}Ace | {g}fec {g}ecB [M: 3/8] | {g}A{d}A{e}A [M:2/4] |"Slow air tempo" {GAG}A4 |]

